!!!COM: Palestrina, Giovanni Perluigi da
!!!OPR: Missa Jesu Nostra Redemptio
!!!OMD: Credo
!!!OTL: Et unam
**kern	**kern	**kern	**kern
*Ibass	*Itenor	*Icalto	*Icant
!Bassus	!Tenor	!Altus	!Cantus
*clefF4	*clefGv2	*clefG2	*clefG2
*k[]	*k[]	*k[]	*k[]
*E:phr	*E:phr	*E:phr	*E:phr
*M3/2	*M3/2	*M3/2	*M3/2
=128	=128	=128	=128
1AA	1A	1e	1a
2r	2r	2r	2r
=129	=129	=129	=129
2A	2c	1r	1r
2F	2A	.	.
2G	2B	2r	2r
=130	=130	=130	=130
1A	1c	1r	1r
2G	2B	2r	2r
=131	=131	=131	=131
2F#	2A	1r	1r
2G	2B	.	.
2E	2c#	2r	2r
=132	=132	=132	=132
1D	1d	2f	2a
.	.	2d	2f
2r	2r	2e	2g
=133	=133	=133	=133
1r	1r	2.f	2.a
.	.	4f	4a
2r	2r	2e	2g
=134	=134	=134	=134
1r	1r	2d	2f#
.	.	2B	2g
2r	2r	2c#	2e
=135	=135	=135	=135
2G	2B	1d	1d
2G	2B	.	.
2G	2B	2r	2r
=136	=136	=136	=136
1C	1c	2e	2g
.	.	2e	2g
2C	2c	2e	2g
=137	=137	=137	=137
1F	1A	2f	2a
.	.	2a	2cc
[2G	[2d	2g	2b
=138	=138	=138	=138
2G]	2d]	2g	2b
1A	1c	1e	1a
=139	=139	=139	=139
2E	2B	2e	2g#
2AA	2c	2e	2a
2AA	2c	2e	2a
=140	=140	=140	=140
1E	1B	1e	1g#
2AA	2c	2e	2a
=141	=141	=141	=141
2D	2A	2d	2f
2E	2G	2B	2e
2F	2A	2A	2d
=142	=142	=142	=142
2E	2G	1c	2e
1D	1F	.	1f
.	.	2B	.
*-	*-	*-	*-
!!!CDT: 1525/^1526/-1594/2/2
!!!OCY: Italia
!!!AGN: Mass (Paraphrase)
!!!AST: renaissance, vocal
!!!ASW: Hymn
!!!PWK: Masses, Book 4
!!!RNB: Cadence finals: C,A
!!!YOR: Le Opere Complete, v. 10, p. 38
!!!YOO: Rome, Italy: Fratelli Scalera
!!!END: 1992//
!!!EED: John Miller
!!!YEC: Copyright 2000, John Miller
!!!YEN: United States of America
!!!YEM: Rights to all derivative electronic formats reserved.
!!!YEM: Refer to licensing agreement for further details.
!!!YEM: This file must be accompanied by the licensing agreement.
!!!YEM: A copy of the licensing agreement may be found at http://www.music-cog.ohio-state.edu/HumdrumDatabases/Palestrina/license.txt
!!!EMD: converted to Humdrum by Bret Aarden
